svgs/sharp-light/images.svg

<svg xmlns="http://www.w3.org/2000/svg" viewBox="0 0 576 512"><!--! Font Awesome Pro 6.6.0 by @fontawesome - https://fontawesome.com License - https://fontawesome.com/license (Commercial License) Copyright 2024 Fonticons, Inc. --><path d="M128 64l416 0 0 137.4-68.7-68.7L464 121.4l-11.3 11.3L304 281.4l-84.7-84.7L208 185.4l-11.3 11.3L128 265.4 128 64zm448 0l0-32-32 0L128 32 96 32l0 32 0 240 0 48 0 32 32 0 112 0c0 0 0 0 0 0l304 0 32 0 0-32 0-112c0 0 0 0 0-.1l0-176zM464 166.6l80 80L544 352l-265.4 0 36.7-36.7L464 166.6zM281.4 304l-48 48L128 352l0-41.4 80-80L281.4 304zM32 112l0-16L0 96l0 16L0 464l0 16 16 0 448 0 16 0 0-32-16 0L32 448l0-336zm232 48a24 24 0 1 0 0-48 24 24 0 1 0 0 48z"/></svg>

<svg xmlns="http://www.w3.org/2000/svg" viewBox="0 0 576 512"><!--! Font Awesome Pro 6.4.2 by @fontawesome - https://fontawesome.com License - https://fontawesome.com/license (Commercial License) Copyright 2023 Fonticons, Inc. --><path d="M128 64H544V201.4l-68.7-68.7L464 121.4l-11.3 11.3L304 281.4l-84.7-84.7L208 185.4l-11.3 11.3L128 265.4V64zm448 0V32H544 128 96V64 304v48 32h32H240h0H544h32V352 240 240 64zM464 166.6l80 80V352H278.6l36.7-36.7L464 166.6zM281.4 304l-48 48H128V310.6l80-80L281.4 304zM32 112V96H0v16V464v16H16 464h16V448H464 32V112zm232 48a24 24 0 1 0 0-48 24 24 0 1 0 0 48z"/></svg>
